X: 468
T: Bûselik Aranağme (Ağıraksak)
C: Mehmet Polat
O: Turkey
F: http://compmusic.upf.edu/node/140
N: buselik--aranagme--agiraksak--1--
N: makam= buselik
N: form= aranagme
N: usul= agiraksak = 9/4
M: 9/4
L: 1/16
K: C    
Q: 1/4=72
%%MIDI tuningsystem comma53
e3/2d/e2 c3/2B/AB G2A2 BcAB cdBc decd efea gfef e4  | 
w:   | 
a2g2 f2e2 d2c'2 (3b2a2b2 (3a2g2a2 gffe efed cBcd e4  | 
w:   | 
eg2^f g2_b2 a2g2 f2_7/8e2 d2g2 f2a2 c'bag fede c4  | 
w:   | 
e2a2 e2c2 A2^g2 f2d2 c2Bc edcB A4 ABcd e4  | 
w:   | 
e3/2d/e2 c3/2B/AB G2A2 BcAB cdBc decd efea gfef e4  | 
w:   | 
a2g2 f2e2 d2c'2 (3b2a2b2 (3a2g2a2 gffe efed cBcd e4  | 
w:   | 
eg2^f g2_b2 a2g2 f2_7/8e2 d2g2 f2a2 c'bag fede c4  | 
w:   | 
e2a2 e2c2 A2^g2 f2d2 c2Bc edcB A12  | |


